X: 20421
T: ASHLEY'S HORNPIPE
C:
%R: hornpipe, reel
B: Elias Howe "The Musician's Companion" 1843 p.42 #1
S: http://imslp.org/wiki/The_Musician's_Companion_(Howe,_Elias)
Z: 2015 John Chambers <jc:trillian.mit.edu>
M: 2/4
L: 1/16
K: D
% - - - - - - - - - - - - - - - - - - - - - - - - -
af |\
d2d2d2cd | e2e2e2ge | c2A2 Bdce | d2d2d2af |\
d2d2d2cd | e2e2e2ge | dcBA Bdce | d2d2d2 :|
|: (de) |\
f2f2f2ef | g2g2g2(gf) | e2e2e2(de) (fgaf) d2(af) |\
d2d2d2cd | e2e2e2(ge) | (dcBA) Bdce | d2d2d2 :|
% - - - - - - - - - - - - - - - - - - - - - - - - -

%%sep 1 1 500

